icons/intro/license.svg

<svg width="42" height="42" viewBox="0 0 42 42" fill="none" xmlns="http://www.w3.org/2000/svg">
<g clip-path="url(#clip0)">
<path d="M2.39531 28.0931H19.8457L19.6139 28.2766C19.426 28.4189 19.3156 28.6407 19.3156 28.8763C19.3152 29.1119 19.4256 29.3341 19.6132 29.4765L20.7709 30.3475L20.1033 31.6335C19.9956 31.842 19.9925 32.0889 20.0947 32.3001C20.1972 32.5113 20.3927 32.6619 20.6231 32.7071L22.0398 32.9829L21.9945 34.4303C21.9828 34.7976 22.2417 35.1186 22.6035 35.1841L21.0089 39.0557C20.8409 39.4628 20.9253 39.9305 21.2243 40.2539C21.5237 40.5773 21.9835 40.6973 22.4026 40.5615L23.8202 40.1027L24.4361 41.365C24.6258 41.7532 25.0201 41.9997 25.4522 42.0001C25.4646 42.0001 25.4772 42.0001 25.4896 41.9994C25.9351 41.9846 26.3304 41.7096 26.4992 41.2971L27.2059 39.566L27.8616 41.1685C28.0276 41.5834 28.4243 41.8598 28.8712 41.8708C28.8845 41.8708 28.8976 41.8718 28.9106 41.8718C29.343 41.8742 29.7381 41.627 29.9246 41.2367L30.5405 39.9741L31.9582 40.4333C32.3772 40.569 32.8371 40.449 33.1365 40.1256C33.4355 39.8023 33.5199 39.3345 33.3518 38.9271L31.8059 35.1728C32.1447 35.0884 32.3783 34.7784 32.3663 34.4293L32.321 32.9829L33.738 32.7071C33.9688 32.6619 34.1646 32.511 34.2664 32.2994C34.3686 32.0878 34.3648 31.8406 34.2568 31.6321L33.5895 30.3485L34.7479 29.4785C34.9348 29.3372 35.0449 29.1167 35.0452 28.8822C35.0445 28.6452 34.9344 28.4216 34.7465 28.2766L34.5143 28.0931H39.6418C39.8245 28.0972 40.0015 28.0269 40.1315 27.8983C40.2618 27.7697 40.3341 27.5938 40.3321 27.4107V0.666305C40.3334 0.484898 40.2601 0.311377 40.1297 0.185524C39.9991 0.0596706 39.8228 -0.00719979 39.6418 0.000687477H2.39531C2.21424 -0.00719979 2.03798 0.0596706 1.90732 0.185524C1.77701 0.311377 1.70363 0.484898 1.705 0.666305V27.4107C1.70294 27.5938 1.7753 27.7697 1.90561 27.8983C2.03558 28.0269 2.21253 28.0972 2.39531 28.0931ZM25.4299 40.199L24.9779 39.2731C24.7293 38.7687 24.1491 38.5221 23.6134 38.6932L22.5325 39.043L24.2715 34.8216L24.3267 34.8072L24.9148 36.1313C24.9989 36.3202 25.1573 36.4653 25.3524 36.5325C25.5479 36.5997 25.7622 36.5825 25.9443 36.4855L26.4457 37.7101L25.4299 40.199ZM30.7459 38.5647C30.2103 38.3939 29.6301 38.6404 29.3818 39.1449L28.9298 40.0711L27.0777 35.5455L27.1799 35.4584L28.2807 36.3953C28.4158 36.5102 28.5876 36.5733 28.7652 36.5729C28.8204 36.5729 28.8756 36.5668 28.9295 36.5548C29.1582 36.502 29.3492 36.3449 29.4449 36.1306L30.033 34.8072L30.1475 34.8371L31.8268 38.9148L30.7459 38.5647ZM32.0851 30.5124L32.6029 31.5031L31.5004 31.7147C31.142 31.7833 30.8869 32.1029 30.8989 32.4678L30.9339 33.5919L29.8471 33.3069C29.4939 33.213 29.1246 33.3903 28.9768 33.725L28.5197 34.7541L27.662 34.0243C27.3843 33.787 26.9748 33.7874 26.6974 34.025L25.8407 34.7537L25.3836 33.725C25.2653 33.4554 24.9989 33.2816 24.7043 33.2812C24.6402 33.2812 24.576 33.2898 24.5136 33.3059L23.4262 33.5909L23.4612 32.4671C23.4746 32.1012 23.2187 31.7802 22.859 31.7113L21.7572 31.497L22.2747 30.5015C22.4444 30.1784 22.3542 29.7796 22.0614 29.5612L21.1598 28.8839L22.06 28.2097C22.3529 27.9916 22.4441 27.5931 22.2754 27.2694L21.7572 26.2729L22.8583 26.0585C23.2181 25.9903 23.4742 25.6693 23.4612 25.3034L23.4262 24.1783L24.5136 24.4632C24.8668 24.5569 25.2358 24.3792 25.3829 24.0449L25.8404 23.0154L26.6957 23.7434C26.9734 23.9825 27.3843 23.9831 27.6627 23.7445L28.5193 23.0158L28.9771 24.0462C29.1246 24.3802 29.4932 24.5572 29.8461 24.4632L30.9335 24.1786L30.8982 25.3055C30.8869 25.6707 31.1424 25.9896 31.5007 26.0582L32.6025 26.2729L32.0851 27.2687C31.9153 27.5924 32.0062 27.9912 32.2994 28.2093L33.2003 28.8962L32.2987 29.5855C32.0055 29.7611 31.916 30.1891 32.0851 30.5124ZM3.10962 1.40531H38.9274V26.6885H33.9585L34.2551 26.1278C34.3631 25.9203 34.3665 25.6738 34.2644 25.4632C34.1622 25.253 33.9664 25.1031 33.7363 25.0599L32.3196 24.7856L32.3649 23.3388C32.3718 23.1039 32.2678 22.88 32.084 22.7335C31.9002 22.5874 31.6585 22.5363 31.4315 22.596L30.0323 22.9626L29.4449 21.6399C29.3496 21.4249 29.1585 21.2675 28.9295 21.2151C28.7001 21.1629 28.4597 21.2219 28.2807 21.3742L27.1795 22.311L26.0777 21.3738C25.8987 21.2216 25.6587 21.1629 25.4296 21.2151C25.2008 21.2675 25.0098 21.4246 24.9145 21.6392L24.3264 22.9626L22.9283 22.5964C22.7009 22.5363 22.4585 22.5874 22.2743 22.7339C22.0905 22.8803 21.9863 23.1053 21.9938 23.3402L22.0391 24.7866L20.6235 25.0623C20.3934 25.1076 20.1976 25.2581 20.095 25.469C19.9932 25.6775 19.9966 25.922 20.1043 26.1275L20.4009 26.6885H3.10962V1.40531Z" fill="#44C6FE"/>
<path d="M6.35783 12.9934H35.5915C35.9793 12.9934 36.2938 12.679 36.2938 12.2911C36.2938 11.9033 35.9793 11.5888 35.5915 11.5888H6.35783C5.96998 11.5888 5.65552 11.9033 5.65552 12.2911C5.65552 12.679 5.96998 12.9934 6.35783 12.9934Z" fill="#44C6FE"/>
<path d="M6.35783 9.3063H21.5453C21.9331 9.3063 22.2476 8.99184 22.2476 8.60399C22.2476 8.21614 21.9331 7.90168 21.5453 7.90168H6.35783C5.96998 7.90168 5.65552 8.21614 5.65552 8.60399C5.65552 8.99184 5.96998 9.3063 6.35783 9.3063Z" fill="#44C6FE"/>
<path d="M6.35783 16.7683H35.5915C35.9793 16.7683 36.2938 16.4539 36.2938 16.066C36.2938 15.6782 35.9793 15.3637 35.5915 15.3637H6.35783C5.96998 15.3637 5.65552 15.6782 5.65552 16.066C5.65552 16.4539 5.96998 16.7683 6.35783 16.7683Z" fill="#44C6FE"/>
<path d="M27.1799 24.8826C24.9694 24.8826 23.1776 26.6744 23.1776 28.8849C23.1776 31.0951 24.9694 32.8872 27.1799 32.8872C29.39 32.8872 31.1822 31.0954 31.1822 28.8849C31.1794 26.6754 29.3894 24.885 27.1799 24.8826ZM27.1799 31.4826C25.7454 31.4826 24.5822 30.3197 24.5822 28.8849C24.5822 27.4505 25.7451 26.2873 27.1799 26.2873C28.6143 26.2873 29.7775 27.4501 29.7775 28.8849C29.7758 30.3187 28.614 31.4809 27.1799 31.4826Z" fill="#44C6FE"/>
</g>
<defs>
<clipPath id="clip0">
<rect width="42" height="42" fill="white"/>
</clipPath>
</defs>
</svg>

<svg xmlns="http://www.w3.org/2000/svg" fill="none" viewBox="0 0 42 42"><g fill="#44C6FE" clip-path="url(#clip0)"><path d="M2.395 28.093h17.45l-.231.184a.752.752 0 0 0 0 1.2l1.157.87-.668 1.287a.745.745 0 0 0 .52 1.073l1.417.276-.046 1.447a.742.742 0 0 0 .61.754l-1.595 3.872a1.13 1.13 0 0 0 1.394 1.506l1.417-.46.616 1.263c.19.388.584.635 1.016.635h.038c.445-.015.84-.29 1.01-.703l.706-1.731.656 1.602c.166.415.562.692 1.01.703h.039c.432.003.827-.244 1.014-.634l.616-1.263 1.417.46a1.131 1.131 0 0 0 1.394-1.507l-1.546-3.754a.74.74 0 0 0 .56-.744l-.045-1.446 1.417-.276a.745.745 0 0 0 .519-1.075l-.667-1.284 1.158-.87a.749.749 0 0 0 .297-.596c0-.237-.11-.46-.299-.605l-.232-.184h5.128a.675.675 0 0 0 .69-.682V.666a.661.661 0 0 0-.69-.665H2.395a.662.662 0 0 0-.69.665v26.745a.674.674 0 0 0 .69.682zM25.43 40.2l-.452-.926a1.136 1.136 0 0 0-1.365-.58l-1.08.35 1.738-4.221.056-.015.588 1.324a.744.744 0 0 0 1.03.355l.5 1.224L25.43 40.2zm5.316-1.634a1.136 1.136 0 0 0-1.364.58l-.452.926-1.852-4.526.102-.087 1.1.937a.745.745 0 0 0 1.165-.264l.588-1.324.114.03 1.68 4.078-1.081-.35zm1.34-8.053l.517.991-1.103.212a.742.742 0 0 0-.601.753l.035 1.124-1.087-.285a.743.743 0 0 0-.87.418l-.457 1.03-.858-.73a.742.742 0 0 0-.965 0l-.856.729-.457-1.029a.742.742 0 0 0-.87-.42l-1.088.286.035-1.124a.742.742 0 0 0-.602-.756l-1.102-.214.518-.995a.742.742 0 0 0-.214-.94l-.901-.678.9-.674a.744.744 0 0 0 .215-.94l-.518-.997 1.101-.215a.742.742 0 0 0 .603-.755l-.035-1.125 1.088.285a.742.742 0 0 0 .869-.418l.457-1.03.856.728c.277.24.688.24.967.002l.856-.73.458 1.031a.741.741 0 0 0 .87.417l1.086-.284-.035 1.127a.743.743 0 0 0 .603.752l1.101.215-.517.996a.742.742 0 0 0 .214.94l.901.687-.901.69c-.294.175-.383.603-.214.926zM3.11 1.405h35.817V26.69H33.96l.296-.561a.74.74 0 0 0-.519-1.068l-1.416-.274.045-1.447a.746.746 0 0 0-.934-.743l-1.399.367-.587-1.323a.746.746 0 0 0-1.164-.266l-1.101.937-1.102-.937a.745.745 0 0 0-1.163.265l-.589 1.324-1.398-.367a.745.745 0 0 0-.934.744l.045 1.447-1.416.275a.748.748 0 0 0-.528.407.73.73 0 0 0 .01.659l.296.56H3.11V1.405z"/><path d="M6.358 12.993h29.234a.702.702 0 0 0 0-1.404H6.358a.702.702 0 0 0 0 1.404zM6.358 9.306h15.187a.702.702 0 0 0 0-1.404H6.358a.702.702 0 0 0 0 1.404zM6.358 16.768h29.234a.702.702 0 0 0 0-1.404H6.358a.702.702 0 0 0 0 1.404zM27.18 24.883a4.002 4.002 0 1 0 0 8.004 4.002 4.002 0 0 0 0-8.004zm0 6.6a2.598 2.598 0 1 1 0-5.196 2.598 2.598 0 0 1 0 5.196z"/></g><defs><clipPath id="clip0"><path fill="#fff" d="M0 0h42v42H0z"/></clipPath></defs></svg>
